// ΔΗΜΗΤΡΗΣ ΘΩΜΟΠΟΥΛΟΣ- TX2020044
// Αλγοριθμική Σύνθεση & Δόμηση του Ήχου - Τελική εργαία (Ιούνιος 2023)

// Όνομα μουσικής σύνθεσης: 'INSOMNIA'

s.boot;
s.reboot;
Server.killAll;
s.meter;
s.volume.gui;